X:7628
T:Irish Washerwoman
R:jig
M:6/8
Q:120
K:G
A|BGG DGG | BGB dcB | c3 DFA | cBc edc |
 BGG DGG | BAB dcB | c3 Adc | BGF G2A |
 B3 D2G | BGB dcB | cAF DFA | ~c3 edc |
 BGG DGG | ~B3 dcB | cBc Adc | BGF G2f|
 gfg def | g3 bag | fdd Add | fef agf |
 gdg fdf | ece dBG | c3 Adc | BGF G2f |
 gfg def | gfg bag | fed Ade | ~f3 agf |
 egg dgg | cgg Bgg | cBc Adc | BGF G3 |


